mimes/scalable/application-x-executable.svg

<?xml version="1.0" encoding="UTF-8" standalone="no"?>
<svg
   xmlns:dc="http://purl.org/dc/elements/1.1/"
   xmlns:cc="http://creativecommons.org/ns#"
   xmlns:rdf="http://www.w3.org/1999/02/22-rdf-syntax-ns#"
   xmlns:svg="http://www.w3.org/2000/svg"
   xmlns="http://www.w3.org/2000/svg"
   xmlns:sodipodi="http://sodipodi.sourceforge.net/DTD/sodipodi-0.dtd"
   xmlns:inkscape="http://www.inkscape.org/namespaces/inkscape"
   width="48"
   height="48"
   viewBox="0 0 12.7 12.7"
   version="1.1"
   id="svg4"
   sodipodi:docname="application-x-executable.svg"
   inkscape:version="0.92.3 (2405546, 2018-03-11)">
  <metadata
     id="metadata10">
    <rdf:RDF>
      <cc:Work
         rdf:about="">
        <dc:format>image/svg+xml</dc:format>
        <dc:type
           rdf:resource="http://purl.org/dc/dcmitype/StillImage" />
        <dc:title></dc:title>
      </cc:Work>
    </rdf:RDF>
  </metadata>
  <defs
     id="defs8" />
  <sodipodi:namedview
     pagecolor="#ffffff"
     bordercolor="#666666"
     borderopacity="1"
     objecttolerance="10"
     gridtolerance="10"
     guidetolerance="10"
     inkscape:pageopacity="0"
     inkscape:pageshadow="2"
     inkscape:window-width="1366"
     inkscape:window-height="715"
     id="namedview6"
     showgrid="false"
     showguides="true"
     inkscape:guide-bbox="true"
     inkscape:snap-global="true"
     inkscape:zoom="2.7447917"
     inkscape:cx="24"
     inkscape:cy="24"
     inkscape:window-x="0"
     inkscape:window-y="27"
     inkscape:window-maximized="1"
     inkscape:current-layer="svg4"
     inkscape:snap-page="false" />
  <path
     inkscape:connector-curvature="0"
     style="opacity:1;fill:#333366;fill-opacity:1;fill-rule:nonzero;stroke:none;stroke-width:0.50711805;stroke-linecap:round;stroke-linejoin:bevel;stroke-miterlimit:4;stroke-dasharray:none;stroke-opacity:1"
     d="m 7.3492433,0.0566603 c -0.040983,0 -0.078161,0.0127642 -0.1049033,0.0330729 C 7.218411,0.1094229 7.202933,0.1367362 7.201965,0.1667311 7.3445127,0.2235372 7.4736634,0.30302596 7.5802366,0.40909358 7.76971,0.59766786 7.8931916,0.85276088 7.9104491,1.1392812 h 0.00672 v 0.068213 0.1441772 0.1369425 0.1927531 c 0,0.2812905 0.2266883,0.5079794 0.5079795,0.5079794 h 0.1183391 l -5.291e-4,0.00568 h 1.6924064 c 0.329951,0 0.613684,0.1491999 0.819072,0.3731038 V 1.141865 0.56463964 c 0,-0.14064565 -0.05654,-0.26789289 -0.148312,-0.35966798 C 10.814345,0.11319656 10.687101,0.0566603 10.546455,0.0566603 H 9.0462851 7.7864139 Z"
     id="path965" />
  <path
     style="opacity:1;fill:#333333;fill-opacity:1;fill-rule:nonzero;stroke:none;stroke-width:0.50711805;stroke-linecap:round;stroke-linejoin:bevel;stroke-miterlimit:4;stroke-dasharray:none;stroke-opacity:1"
     d="m 2.9460732,0.55206094 c -0.6285519,0 -1.134298,0.50626306 -1.134298,1.13481446 v 9.9012056 c 0,0.628551 0.5057461,1.134814 1.134298,1.134814 h 4.2855261 2.522327 c 0.6285527,0 1.1342987,-0.506263 1.1342987,-1.134814 V 3.6728008 h -0.01292 C 10.810197,3.1070068 10.337709,2.6687276 9.7539263,2.6687276 h -1.692403 v 0 l -0.11781,-0.00568 C 7.6627483,2.6495013 7.4357343,2.4363589 7.4357343,2.1550682 V 1.9623107 1.8253682 1.6811909 1.612978 h -0.0067 C 7.3941823,1.0346118 6.9321933,0.5804805 6.3510473,0.55464473 l -5.29e-4,-0.002585 h -0.02015 z"
     id="path833"
     inkscape:connector-curvature="0" />
  <path
     style="opacity:1;fill:#cccccc;fill-opacity:1;fill-rule:nonzero;stroke:none;stroke-width:0.50711805;stroke-linecap:round;stroke-linejoin:bevel;stroke-miterlimit:4;stroke-dasharray:none;stroke-opacity:1"
     d="m 6.4269983,1.0791605 c 0.263277,0.019482 0.470254,0.2359637 0.470255,0.504362 v 0.2563151 0.125057 0.092501 c 0,0.5757933 0.427721,1.0388807 0.982369,1.1136271 v 0 l 1.962134,0.026872 c 0.2812647,0.00385 0.5079787,0.2266886 0.5079797,0.5079793 V 5.7894678 11.68575 c 0,0.281291 -0.226688,0.50798 -0.5079797,0.50798 H 7.2315993 2.8582236 c -0.281291,0 -0.50798,-0.226689 -0.50798,-0.50798 V 1.5892069 c 0,-0.2812907 0.226689,-0.5079794 0.50798,-0.5079794 h 3.5692907 z"
     id="path901-5"
     inkscape:connector-curvature="0" />
  <path
     inkscape:connector-curvature="0"
     style="overflow:visible;fill:#333366;fill-opacity:1;stroke:none;stroke-width:0.26458326;stroke-opacity:1"
     d="M 6.3435879,4.16175 A 0.42993607,0.42993607 0 0 0 6.3005419,4.16449 0.42993607,0.42993607 0 0 0 6.2582469,4.17144 0.42993607,0.42993607 0 0 0 6.2166909,4.182638 0.42993607,0.42993607 0 0 0 6.1766299,4.197816 0.42993607,0.42993607 0 0 0 6.1380659,4.217222 0.42993607,0.42993607 0 0 0 6.1017369,4.240111 0.42993607,0.42993607 0 0 0 6.0678989,4.266484 0.42993607,0.42993607 0 0 0 6.0452579,4.287632 L 3.036131,7.2972724 a 0.42993607,0.42993607 0 0 0 -0.028613,0.031846 0.42993607,0.42993607 0 0 0 -0.025631,0.034588 0.42993607,0.42993607 0 0 0 -0.021896,0.037071 0.42993607,0.42993607 0 0 0 -0.017916,0.038811 0.42993607,0.42993607 0 0 0 -0.01418,0.040803 0.42993607,0.42993607 0 0 0 -0.00994,0.041803 0.42993607,0.42993607 0 0 0 -0.00572,0.042545 0.42993607,0.42993607 0 0 0 -0.00149,0.042795 0.42993607,0.42993607 0 0 0 0.00274,0.043046 0.42993607,0.42993607 0 0 0 0.00696,0.042295 0.42993607,0.42993607 0 0 0 0.01144,0.041555 0.42993607,0.42993607 0 0 0 0.015177,0.040061 0.42993607,0.42993607 0 0 0 0.019405,0.038317 0.42993607,0.42993607 0 0 0 0.023139,0.03633 0.42993607,0.42993607 0 0 0 0.026373,0.033838 0.42993607,0.42993607 0 0 0 0.020157,0.021648 l 3.0096308,3.0101276 a 0.42993607,0.42993607 0 0 0 0.031846,0.02886 0.42993607,0.42993607 0 0 0 0.034586,0.0254 0.42993607,0.42993607 0 0 0 0.037071,0.02216 0.42993607,0.42993607 0 0 0 0.038813,0.01815 0.42993607,0.42993607 0 0 0 0.040553,0.01395 0.42993607,0.42993607 0 0 0 0.041803,0.01018 0.42993607,0.42993607 0 0 0 0.042545,0.0059 0.42993607,0.42993607 0 0 0 0.043046,0.0016 0.42993607,0.42993607 0 0 0 0.042796,-0.0029 0.42993607,0.42993607 0 0 0 0.042545,-0.007 0.42993607,0.42993607 0 0 0 0.041305,-0.01121 0.42993607,0.42993607 0 0 0 0.040306,-0.01514 0.42993607,0.42993607 0 0 0 0.038317,-0.01944 0.42993607,0.42993607 0 0 0 0.036328,-0.0229 0.42993607,0.42993607 0 0 0 0.033838,-0.02637 0.42993607,0.42993607 0 0 0 0.022641,-0.02114 l 3.009645,-3.0097774 a 0.42993607,0.42993607 0 0 0 0.02886,-0.031846 0.42993607,0.42993607 0 0 0 0.025402,-0.034587 0.42993607,0.42993607 0 0 0 0.02191,-0.037071 0.42993607,0.42993607 0 0 0 0.018135,-0.038813 0.42993607,0.42993607 0 0 0 0.014198,-0.040803 0.42993607,0.42993607 0 0 0 0.00995,-0.041803 0.42993607,0.42993607 0 0 0 0.00585,-0.042545 0.42993607,0.42993607 0 0 0 0.00167,-0.042795 0.42993607,0.42993607 0 0 0 -0.00325,-0.043046 0.42993607,0.42993607 0 0 0 -0.00706,-0.042296 0.42993607,0.42993607 0 0 0 -0.011208,-0.041556 0.42993607,0.42993607 0 0 0 -0.015414,-0.040061 0.42993607,0.42993607 0 0 0 -0.019439,-0.038317 0.42993607,0.42993607 0 0 0 -0.022897,-0.036328 0.42993607,0.42993607 0 0 0 -0.026598,-0.033838 0.42993607,0.42993607 0 0 0 -0.020159,-0.021648 L 6.6538627,4.2876485 a 0.42993607,0.42993607 0 0 0 -0.031846,-0.028863 0.42993607,0.42993607 0 0 0 -0.034586,-0.02538 0.42993607,0.42993607 0 0 0 -0.037071,-0.022145 0.42993607,0.42993607 0 0 0 -0.039062,-0.018164 0.42993607,0.42993607 0 0 0 -0.040555,-0.014182 0.42993607,0.42993607 0 0 0 -0.041803,-0.00994 0.42993607,0.42993607 0 0 0 -0.042545,-0.00572 0.42993607,0.42993607 0 0 0 -0.042796,-0.00149 z m 0.00548,0.415267 1.6881885,1.6881885 A 2.9452146,2.9452146 0 0 0 8.0081406,6.2644689 C 7.9599415,6.403208 7.9153655,6.5623614 7.870796,6.7210243 7.832759,6.8564261 7.794738,6.9917537 7.7536054,7.1106638 7.520803,7.136109 7.2989029,7.1864856 7.0942535,7.2796064 6.8885218,7.1052757 6.6680193,6.8611798 6.4682429,6.6879318 A 3.0112653,3.0112653 0 0 0 6.0957715,6.9412222 C 6.1915998,7.1902662 6.3410343,7.48305 6.4341557,7.736425 6.2728184,7.9037178 6.1467973,8.0991572 6.0450138,8.3119269 c -0.2674512,0 -0.5968034,-0.04534 -0.8626305,-0.050758 C 5.1336561,8.4013912 5.09156,8.5524757 5.0639486,8.7008193 5.2994575,8.830755 5.6085963,8.9540258 5.842481,9.0904591 c -0.0032,0.050352 -0.017415,0.1003415 -0.017415,0.151775 0,0.1802855 0.026528,0.3571589 0.067676,0.5249931 C 5.8236765,9.8221846 5.7411905,9.879876 5.6613471,9.9366686 L 3.3254998,7.600579 3.8490001,7.0770788 c 0.023774,0.00814 0.066223,0.00305 0.081859,0.016921 0.131019,0.1158595 0.075185,0.5580945 0.083849,0.8964693 0.1153181,0.047639 0.23103,0.092696 0.3555521,0.1186831 0.021656,0.00436 0.04602,-0.00383 0.067676,0 C 4.6203895,7.8249157 4.8077287,7.4116941 4.9793525,7.3813756 5.1536836,7.3505156 5.4694763,7.6856783 5.7407168,7.888703 5.8690293,7.81778 5.9869501,7.7317812 6.0957714,7.6354122 5.9901987,7.3132799 5.7741511,6.8941201 5.8591513,6.7381969 5.944692,6.581191 6.4108616,6.5379846 6.7389501,6.4508191 c 0.015156,-0.099076 0.033588,-0.2008895 0.033588,-0.304297 0,-0.040606 -0.014503,-0.079117 -0.016673,-0.1191807 C 6.4380676,5.9098576 5.9789156,5.8188702 5.9101576,5.6553676 5.8408583,5.4918653 6.0941511,5.1026667 6.2311252,4.7929856 A 2.01509,2.01509 0 0 0 6.182357,4.7437217 Z M 5.3707337,5.5553453 A 0.91171722,0.91171722 0 0 1 4.0833811,6.8426981 Z m 3.1643897,1.2077328 0.6809989,0.6809981 c -0.00222,0.0015 -0.00466,0.00349 -0.0072,0.00501 C 9.0221229,7.3229075 8.8048707,7.2416901 8.5828967,7.1783462 8.5632176,7.0487875 8.5489886,6.9068705 8.5351269,6.7630796 Z M 7.9907227,8.1594103 c 0.2332998,0 0.4449431,0.07914 0.6205371,0.2050211 L 7.1084358,9.8670061 A 1.0795512,1.0795512 0 0 1 7.9907227,8.1594103 Z m -1.742181,2.3517727 c 0.030534,0.04222 0.075039,0.0687 0.1077363,0.107737 l -0.00645,0.0065 -0.1117258,-0.111717 c 0.0033,-6.5e-4 0.00717,-0.0019 0.010443,-0.0025 z"
     id="path917" />
</svg>

<?xml version="1.0" encoding="UTF-8" standalone="no"?><svg xmlns:dc="http://purl.org/dc/elements/1.1/" xmlns:cc="http://creativecommons.org/ns#" xmlns:rdf="http://www.w3.org/1999/02/22-rdf-syntax-ns#" xmlns="http://www.w3.org/2000/svg" width="48" height="48" viewBox="0 0 12.7 12.7"><metadata><rdf:RDF><cc:Work><dc:format>image/svg+xml</dc:format><dc:type rdf:resource="http://purl.org/dc/dcmitype/StillImage"/><dc:title/></cc:Work></rdf:RDF></metadata><path d="M7.35.06a.17.17 0 0 0-.1.03.1.1 0 0 0-.05.08 1.12 1.12 0 0 1 .71.97v.55c0 .27.23.5.52.5h1.81c.33 0 .6.15.81.38V.56a.5.5 0 0 0-.5-.5H7.79z" fill="#336"/><path d="M2.95.55c-.63 0-1.14.5-1.14 1.14v9.9c0 .63.5 1.13 1.14 1.13H9.75c.63 0 1.14-.5 1.14-1.13V3.67h-.01c-.07-.56-.54-1-1.13-1H7.94a.52.52 0 0 1-.5-.51V1.6h-.01A1.12 1.12 0 0 0 6.35.55h-.02z" fill="#333"/><path d="M6.43 1.08a.5.5 0 0 1 .47.5v.48c0 .57.42 1.04.98 1.11l1.96.03c.28 0 .51.22.51.5v7.99a.5.5 0 0 1-.5.5H2.85a.5.5 0 0 1-.51-.5V1.59c0-.28.23-.5.5-.5h3.58z" fill="#ccc"/><path d="M6.34 4.16a.43.43 0 0 0-.04 0 .43.43 0 0 0-.04.01.43.43 0 0 0-.04.01.43.43 0 0 0-.04.02.43.43 0 0 0-.04.02.43.43 0 0 0-.04.02.43.43 0 0 0-.03.03.43.43 0 0 0-.02.02l-3.01 3a.43.43 0 0 0-.03.04.43.43 0 0 0-.03.03.43.43 0 0 0-.02.04.43.43 0 0 0-.02.04.43.43 0 0 0-.01.04.43.43 0 0 0-.01.04.43.43 0 0 0 0 .04.43.43 0 0 0 0 .05.43.43 0 0 0 0 .04.43.43 0 0 0 0 .04.43.43 0 0 0 .01.04.43.43 0 0 0 .02.04.43.43 0 0 0 .02.04.43.43 0 0 0 .02.04.43.43 0 0 0 .03.03.43.43 0 0 0 .02.02l3 3.01a.43.43 0 0 0 .04.03.43.43 0 0 0 .03.03.43.43 0 0 0 .04.02.43.43 0 0 0 .04.02.43.43 0 0 0 .04.01.43.43 0 0 0 .04.01.43.43 0 0 0 .04 0 .43.43 0 0 0 .05.01.43.43 0 0 0 .04 0 .43.43 0 0 0 .04 0 .43.43 0 0 0 .04-.02.43.43 0 0 0 .04-.02.43.43 0 0 0 .04-.01.43.43 0 0 0 .04-.03.43.43 0 0 0 .03-.02.43.43 0 0 0 .02-.03l3.01-3a.43.43 0 0 0 .03-.04.43.43 0 0 0 .03-.03.43.43 0 0 0 .02-.04.43.43 0 0 0 .02-.04.43.43 0 0 0 .01-.04.43.43 0 0 0 .01-.04.43.43 0 0 0 0-.04.43.43 0 0 0 .01-.05.43.43 0 0 0 0-.04.43.43 0 0 0-.01-.04.43.43 0 0 0-.01-.04.43.43 0 0 0-.02-.04.43.43 0 0 0-.02-.04.43.43 0 0 0-.02-.04.43.43 0 0 0-.03-.03.43.43 0 0 0-.02-.02l-3-3.01a.43.43 0 0 0-.04-.03.43.43 0 0 0-.03-.03.43.43 0 0 0-.04-.02.43.43 0 0 0-.04-.02.43.43 0 0 0-.04-.01.43.43 0 0 0-.04-.01.43.43 0 0 0-.04 0 .43.43 0 0 0-.05 0zm0 .42l1.7 1.69a2.95 2.95 0 0 0-.03 0l-.14.45-.12.4c-.23.02-.45.07-.66.16-.2-.17-.42-.42-.62-.6a3.01 3.01 0 0 0-.37.26c.1.25.24.54.33.8-.16.16-.28.36-.38.57-.27 0-.6-.04-.87-.05-.05.14-.09.3-.12.44.24.13.55.25.78.39l-.01.15c0 .18.02.36.06.53l-.23.17L3.33 7.6l.52-.52.08.01c.13.12.08.56.08.9a2 2 0 0 0 .36.12h.07c.18-.29.37-.7.54-.73.17-.03.49.3.76.5.13-.06.25-.15.36-.24-.11-.33-.33-.75-.24-.9.08-.16.55-.2.88-.29l.03-.3-.01-.12c-.32-.12-.78-.21-.85-.37-.07-.17.18-.56.32-.87a2.02 2.02 0 0 0-.05-.05zm-.97.98a.91.91 0 0 1-1.29 1.28zm3.17 1.2l.68.68H9.2c-.19-.12-.4-.2-.63-.26a7.86 7.86 0 0 1-.04-.42zm-.55 1.4c.23 0 .45.08.62.2l-1.5 1.5a1.08 1.08 0 0 1 .88-1.7zM6.25 10.5l.1.1v.02l-.11-.12z" overflow="visible" fill="#336"/></svg>
